Papirus/22x22/panel/indicator-lunar-satelite.svg

<?xml version="1.0" encoding="UTF-8" standalone="no"?>
<svg xmlns:dc="http://purl.org/dc/elements/1.1/" xmlns:cc="http://creativecommons.org/ns#" xmlns:rdf="http://www.w3.org/1999/02/22-rdf-syntax-ns#" xmlns:svg="http://www.w3.org/2000/svg" xmlns="http://www.w3.org/2000/svg" id="svg2" viewBox="0 0 22 22" version="1.1" width="22" height="22">
    <metadata id="metadata22">
        <rdf:RDF>
            <cc:Work rdf:about="">
                <dc:format>
                    image/svg+xml
                </dc:format>
                <dc:type rdf:resource="http://purl.org/dc/dcmitype/StillImage"/>
                <dc:title/>
            </cc:Work>
        </rdf:RDF>
    </metadata>
    <path id="path6" d="M 5.9140625 3.375 L 4.5 4.7890625 L 5.9140625 6.203125 L 7.328125 4.7890625 L 5.9140625 3.375 z M 17.005859 3.5742188 A 1.5 1.5 0 0 0 15.505859 5.0742188 A 1.5 1.5 0 0 0 17.005859 6.5742188 A 1.5 1.5 0 0 0 18.505859 5.0742188 A 1.5 1.5 0 0 0 17.005859 3.5742188 z M 3.7929688 5.4960938 L 2.3769531 6.9101562 L 3.7929688 8.3242188 L 5.2070312 6.9101562 L 3.7929688 5.4960938 z M 8.0351562 5.4960938 L 6.6210938 6.9101562 L 8.0351562 8.3242188 L 9.4492188 6.9101562 L 8.0351562 5.4960938 z M 14.800781 6.21875 L 13.974609 7.0449219 L 15.035156 8.1054688 L 15.861328 7.2792969 C 15.408328 7.0411969 15.039781 6.67215 14.800781 6.21875 z M 11.511719 6.2753906 L 5.4765625 12.310547 C 6.4134025 12.677447 7.2911562 13.251994 8.0351562 13.996094 C 8.7779062 14.740694 9.35245 15.616134 9.71875 16.552734 L 15.753906 10.515625 L 11.511719 6.2753906 z M 5.9140625 7.6171875 L 4.5 9.03125 L 5.9140625 10.445312 L 7.328125 9.03125 L 5.9140625 7.6171875 z M 15.105469 12.574219 L 13.691406 13.990234 L 15.105469 15.404297 L 16.519531 13.990234 L 15.105469 12.574219 z M 3.0625 12.832031 C 2.8468705 12.836559 2.6321344 12.854372 2.4199219 12.888672 A 0.50005 0.50005 0 0 0 2.1464844 13.738281 L 8.2617188 19.853516 A 0.50005 0.50005 0 0 0 9.1113281 19.580078 C 9.3855281 17.883678 8.688025 16.039081 7.328125 14.675781 C 6.13585 13.483506 4.5719064 12.80034 3.0625 12.832031 z M 12.984375 14.697266 L 11.570312 16.111328 L 12.984375 17.525391 L 14.398438 16.111328 L 12.984375 14.697266 z M 17.226562 14.697266 L 15.8125 16.111328 L 17.226562 17.525391 L 18.640625 16.111328 L 17.226562 14.697266 z M 15.105469 16.818359 L 13.691406 18.232422 L 15.105469 19.646484 L 16.519531 18.232422 L 15.105469 16.818359 z " style="fill:#ffffff;fill-opacity:1;opacity:1"/>
</svg>

<?xml version="1.0" encoding="UTF-8" standalone="no"?>
<svg id="svg2" xmlns:rdf="http://www.w3.org/1999/02/22-rdf-syntax-ns#" xmlns="http://www.w3.org/2000/svg" viewBox="0 0 22 22" width="22" version="1.1" xmlns:cc="http://creativecommons.org/ns#" height="22" xmlns:dc="http://purl.org/dc/elements/1.1/">
 <metadata id="metadata22">
  <rdf:RDF>
   <cc:Work rdf:about="">
    <dc:format>image/svg+xml</dc:format>
    <dc:type rdf:resource="http://purl.org/dc/dcmitype/StillImage"/>
    <dc:title/>
   </cc:Work>
  </rdf:RDF>
 </metadata>
 <path id="path6" d="m5.9141 3.375l-1.4141 1.4141 1.4141 1.414 1.414-1.414-1.414-1.4141zm11.092 0.1992a1.5 1.5 0 0 0 -1.5 1.5 1.5 1.5 0 0 0 1.5 1.5 1.5 1.5 0 0 0 1.5 -1.5 1.5 1.5 0 0 0 -1.5 -1.5zm-13.213 1.9219l-1.416 1.4141 1.416 1.414 1.414-1.414-1.414-1.4141zm4.2422 0l-1.4141 1.4141 1.4141 1.414 1.414-1.414-1.414-1.4141zm6.7658 0.7227l-0.826 0.8261 1.06 1.0606 0.826-0.8262c-0.453-0.2381-0.821-0.6071-1.06-1.0605zm-3.289 0.0566l-6.0354 6.0356c0.9368 0.366 1.8146 0.941 2.5586 1.685 0.7427 0.745 1.3172 1.62 1.6836 2.557l6.0352-6.037-4.242-4.2406zm-5.5979 1.3418l-1.4141 1.414 1.4141 1.4138 1.414-1.4138-1.414-1.414zm9.1909 4.9568l-1.414 1.416 1.414 1.414 1.415-1.414-1.415-1.416zm-12.042 0.258c-0.2156 0.005-0.4304 0.022-0.6426 0.057a0.50005 0.50005 0 0 0 -0.2734 0.849l6.1152 6.116a0.50005 0.50005 0 0 0 0.8496 -0.274c0.2742-1.696-0.4233-3.541-1.7832-4.904-1.1923-1.192-2.7562-1.876-4.2656-1.844zm9.9215 1.865l-1.414 1.414 1.414 1.414 1.414-1.414-1.414-1.414zm4.243 0l-1.415 1.414 1.415 1.414 1.414-1.414-1.414-1.414zm-2.122 2.121l-1.414 1.414 1.414 1.414 1.415-1.414-1.415-1.414z" fill="#fff"/>
</svg>
